public/assets/iplayer.svg

<svg viewBox="0 0 209 240" version="1.1" xmlns="http://www.w3.org/2000/svg" xmlns:xlink="http://www.w3.org/1999/xlink">
    <title>00_Foundations/logos/Identifier/Identifier</title>
    <g id="Page-1" stroke="none" stroke-width="1" fill="none" fill-rule="evenodd">
        <g id="Group" transform="translate(1.000000, 0.000000)" fill-rule="nonzero">
            <g id="BBC_iPlayer_Identifier_Colour_RGB" transform="translate(-0.426000, 0.000000)">
                <path d="M49.5145264,192.149738 L1.41470075,192.149738 C1.02565805,192.149738 0.671982858,191.990585 0.415922022,191.734524 C0.159153835,191.477756 0,191.12408 0,190.735038 L0,49.2649623 C0,48.8745049 0.158446484,48.5208297 0.414507321,48.2647689 C0.670568157,48.0087081 1.02424335,47.8502616 1.41470075,47.8502616 L49.5145264,47.8502616 C49.9035691,47.8502616 50.2572443,48.0094154 50.5140125,48.2654762 C50.7700733,48.5222444 50.9292271,48.8759196 50.9292271,49.2649623 L50.9292271,190.735038 C50.9292271,191.125495 50.7707806,191.47917 50.5147198,191.735231 C50.258659,191.991292 49.9049838,192.149738 49.5145264,192.149738 Z" id="Path" fill="#DC2878"></path>
                <g id="Group" transform="translate(58.830181, 0.000000)">
                    <path d="M125.155896,114.513083 L149.205809,72.8572194 C149.40033,72.5205207 149.439235,72.1343074 149.345157,71.7841689 C149.251079,71.4340305 149.024727,71.1192596 148.687321,70.9247382 L26.1706991,0.189700529 C25.8325857,-0.00552817471 25.4470797,-0.0451397958 25.0969413,0.0482304539 C24.7475102,0.141600704 24.4334466,0.369367525 24.2382179,0.707481005 L0.1883051,42.3633447 C-0.0062162533,42.7000435 -0.045120524,43.0862568 0.0489570761,43.4363952 C0.143034676,43.7865337 0.369386797,44.1013046 0.706792927,44.2958259 L123.223415,115.030864 C123.561528,115.226092 123.947034,115.265704 124.297173,115.172334 C124.646604,115.078256 124.960667,114.851197 125.155896,114.513083 Z" id="Path" fill="#FF4C98"></path>
                    <path d="M125.155896,125.486917 L149.205809,167.142781 C149.40033,167.479479 149.439235,167.865693 149.345157,168.215831 C149.251079,168.56597 149.024727,168.88074 148.687321,169.075262 L26.1706991,239.810299 C25.8325857,240.005528 25.4470797,240.04514 25.0969413,239.95177 C24.7475102,239.858399 24.4334466,239.630632 24.2382179,239.292519 L0.1883051,197.636655 C-0.0062162533,197.299957 -0.045120524,196.913743 0.0489570761,196.563605 C0.143034676,196.213466 0.369386797,195.898695 0.706792927,195.704174 L123.223415,124.969136 C123.561528,124.773908 123.947034,124.734296 124.297173,124.827666 C124.646604,124.921744 124.960667,125.148803 125.155896,125.486917 Z" id="Path" fill="#AF0D5B"></path>
                </g>
            </g>
        </g>
    </g>
</svg>

<svg viewBox="0 0 209 240" xmlns="http://www.w3.org/2000/svg"><g fill="none" transform="translate(.574)"><path d="m49.5145264 192.149738h-48.09982565c-.3890427 0-.74271789-.159153-.99877873-.415214-.25676818-.256768-.41592202-.610444-.41592202-.999486v-141.4700757c0-.3904574.15844648-.7441326.41450732-1.0001934s.60973603-.4145073 1.00019343-.4145073h48.09982565c.3890427 0 .7427179.1591538.9994861.4152146.2560608.2567682.4152146.6104434.4152146.9994861v141.4700757c0 .390457-.1584465.744132-.4145073 1.000193s-.609736.414507-1.0001934.414507z" fill="#dc2878"/><g transform="translate(58.830181)"><path d="m125.155896 114.513083 24.049913-41.6558636c.194521-.3366987.233426-.722912.139348-1.0730505-.094078-.3501384-.32043-.6649093-.657836-.8594307l-122.5166219-70.73503767c-.3381134-.1952287-.7236194-.23484033-1.0737578-.14147008-.3494311.09337025-.6634947.32113708-.8587234.65925056l-24.0499128 41.65586369c-.19452135.3366988-.23342562.7229121-.13934802 1.0730505.0940776.3501385.32042972.6649094.65783585.8594307l122.51662207 70.7350381c.338113.195228.723619.23484 1.073758.14147.349431-.094078.663494-.321137.858723-.659251z" fill="#ff4c98"/><path d="m125.155896 125.486917 24.049913 41.655864c.194521.336698.233426.722912.139348 1.07305-.094078.350139-.32043.664909-.657836.859431l-122.5166219 70.735037c-.3381134.195229-.7236194.234841-1.0737578.141471-.3494311-.093371-.6634947-.321138-.8587234-.659251l-24.0499128-41.655864c-.19452135-.336698-.23342562-.722912-.13934802-1.07305.0940776-.350139.32042972-.66491.65783585-.859431l122.51662207-70.735038c.338113-.195228.723619-.23484 1.073758-.14147.349431.094078.663494.321137.858723.659251z" fill="#af0d5b"/></g></g></svg>
